pages/travel-inside/img/svg/why-we5.svg

<svg width="35" height="35" viewBox="0 0 35 35" fill="none" xmlns="http://www.w3.org/2000/svg">
<circle cx="17.5" cy="17.5" r="17.5" fill="white"/>
<path d="M24.5605 16.8496H23.3838C23.3482 16.8496 23.3129 16.8511 23.2779 16.8534C23.0135 16.6175 22.7211 16.4228 22.4084 16.2727C23.1217 15.7661 23.5879 14.9335 23.5879 13.9941C23.5879 12.4541 22.335 11.2012 20.795 11.2012C19.2548 11.2012 18.0019 12.4541 18.0019 13.9941C18.0019 14.7342 18.2915 15.4079 18.763 15.9081H16.7078C17.1793 15.4079 17.4688 14.7342 17.4688 13.9941C17.4688 12.4541 16.2159 11.2012 14.6758 11.2012C13.1358 11.2012 11.8828 12.4541 11.8828 13.9941C11.8828 14.8578 12.2769 15.6311 12.8947 16.1439C12.4669 16.3037 12.07 16.5428 11.722 16.8534C11.687 16.8511 11.6518 16.8496 11.6162 16.8496H10.4395C10.1967 16.8496 10 17.0464 10 17.2891V19.6426C10 19.8853 10.1967 20.082 10.4395 20.082H10.4707V23.4082C10.4707 23.6509 10.6674 23.8477 10.9101 23.8477H24.0899C24.3326 23.8477 24.5293 23.6509 24.5293 23.4082V20.082H24.5605C24.8033 20.082 25 19.8853 25 19.6426V17.2891C25 17.0464 24.8033 16.8496 24.5605 16.8496ZM24.1211 19.2031H23.3838C22.9773 19.2031 22.6464 18.8724 22.6464 18.4658C22.6464 18.0593 22.9773 17.7285 23.3838 17.7285H24.1211V19.2031ZM18.8808 13.9941C18.8808 12.9387 19.7395 12.0801 20.7949 12.0801C21.8502 12.0801 22.709 12.9387 22.709 13.9941C22.709 15.0496 21.8504 15.9081 20.795 15.9081C19.7395 15.9081 18.8808 15.0496 18.8808 13.9941ZM14.6758 12.0801C15.7312 12.0801 16.5899 12.9387 16.5899 13.9941C16.5899 15.0495 15.7312 15.9081 14.6758 15.9081C13.6203 15.9081 12.7617 15.0496 12.7617 13.9941C12.7617 12.9387 13.6203 12.0801 14.6758 12.0801ZM10.8789 17.7285H11.6162C12.0227 17.7285 12.3536 18.0593 12.3536 18.4659C12.3536 18.8724 12.0227 19.2031 11.6162 19.2031H10.8789V17.7285ZM11.3496 20.082H11.6162C12.5074 20.082 13.2325 19.357 13.2325 18.4658C13.2325 17.9723 13.0098 17.53 12.6601 17.2334H12.6705C13.1247 16.9428 13.653 16.7871 14.2051 16.7871H18.3913C17.578 17.4726 17.0605 18.4983 17.0605 19.6426V22.9688H13.2324V21.0546C13.2324 20.812 13.0357 20.6152 12.7929 20.6152C12.5503 20.6152 12.3535 20.812 12.3535 21.0546V22.9687H11.3496V20.082ZM23.6504 22.9687H22.6464V21.0546C22.6464 20.812 22.4497 20.6152 22.207 20.6152C21.9643 20.6152 21.7675 20.812 21.7675 21.0546V22.9687H17.9395V19.6426C17.9395 18.0681 19.2204 16.7871 20.795 16.7871C21.3497 16.7871 21.8801 16.9442 22.3355 17.2371C21.9883 17.5339 21.7676 17.9744 21.7676 18.4659C21.7676 19.357 22.4926 20.082 23.3839 20.082H23.6504V22.9687Z" fill="black"/>
</svg>

<svg xmlns="http://www.w3.org/2000/svg" width="35" height="35" fill="none"><circle cx="17.5" cy="17.5" r="17.5" fill="#fff"/><path fill="#000" d="M24.56 16.85h-1.28a3.73 3.73 0 00-.87-.58 2.8 2.8 0 10-3.65-.36h-2.05a2.78 2.78 0 00-2.03-4.7 2.8 2.8 0 00-1.79 4.93c-.42.16-.82.4-1.17.71h-1.28c-.24 0-.44.2-.44.44v2.35c0 .25.2.44.44.44h.03v3.33c0 .24.2.44.44.44h13.18c.24 0 .44-.2.44-.44v-3.33h.03c.24 0 .44-.2.44-.44V17.3c0-.24-.2-.44-.44-.44zm-.44 2.35h-.74a.74.74 0 010-1.47h.74v1.47zM18.88 14a1.92 1.92 0 113.83 0 1.92 1.92 0 01-3.83 0zm-4.2-1.92a1.92 1.92 0 110 3.83 1.92 1.92 0 010-3.83zm-3.8 5.65h.74a.74.74 0 010 1.47h-.74v-1.47zm.47 2.35h.27a1.62 1.62 0 001.04-2.85h.01c.45-.29.98-.44 1.54-.44h4.18a3.73 3.73 0 00-1.33 2.85v3.33h-3.83v-1.92a.44.44 0 00-.88 0v1.92h-1v-2.89zm12.3 2.89h-1v-1.92a.44.44 0 00-.88 0v1.92h-3.83v-3.33a2.86 2.86 0 014.4-2.4 1.61 1.61 0 001.04 2.84h.27v2.89z"/></svg>
